svg/food/hamburger_line.svg

<svg xmlns="http://www.w3.org/2000/svg" width="24" height="24" viewBox="0 0 24 24"><g fill="none" fill-rule="evenodd"><path d="M24,0 L24,24 L0,24 L0,0 L24,0 Z M12.5935,23.2578 L12.5819,23.2595 L12.5109,23.295 L12.4919,23.2987 L12.4767,23.295 L12.4057,23.2595 C12.3958,23.2564 12.387,23.259 12.3821,23.2649 L12.378,23.2758 L12.3609,23.7031 L12.3659,23.7235 L12.3769,23.7357 L12.4805,23.8097 L12.4953,23.8136 L12.5071,23.8097 L12.6107,23.7357 L12.6233,23.7197 L12.6267,23.7031 L12.6096,23.2758 C12.6076,23.2657 12.601,23.2593 12.5935,23.2578 Z M12.8584,23.1453 L12.8445,23.1473 L12.6598,23.2397 L12.6499,23.2499 L12.6472,23.2611 L12.6651,23.6906 L12.6699,23.7034 L12.6784,23.7105 L12.8793,23.8032 C12.8914,23.8069 12.9022,23.803 12.9078,23.7952 L12.9118,23.7812 L12.8777,23.1665 C12.8753,23.1546 12.8674,23.147 12.8584,23.1453 Z M12.143,23.1473 C12.1332,23.1424 12.1222,23.1453 12.1156,23.1526 L12.1099,23.1665 L12.0758,23.7812 C12.0751,23.7927 12.0828,23.8019 12.0926,23.8046 L12.1083,23.8032 L12.3092,23.7105 L12.3186,23.7024 L12.3225,23.6906 L12.3404,23.2611 L12.3372,23.2485 L12.3278,23.2397 L12.143,23.1473 Z"/><path fill="#09244B" d="M5.8436,4.56647 C7.4459,3.6426 9.6186,3 12,3 C14.3813,3 16.554,3.6426 18.1563,4.56647 C18.9568,5.028 19.644,5.57662 20.1426,6.18073 C20.6336,6.77575 21,7.49879 21,8.28571 C21,9.07751 20.6206,9.69777 20.0102,10.1072 C19.4664,10.472 18.7596,10.6599 18.0289,10.7738 C17.44814,10.86432 16.769956,10.918616 16.0101816,10.951184 L15.2237968,10.9770462 L15.2237968,10.9770462 L14.386537,10.9916444 L14.386537,10.9916444 L13.5019208,10.9982 L13.5019208,10.9982 L10.4980657,10.9982 L10.4980657,10.9982 L9.61343815,10.9916444 L9.61343815,10.9916444 L8.77616457,10.9770462 L8.77616457,10.9770462 L7.98976296,10.951184 C7.22997,10.918616 6.551762,10.86432 5.97097,10.7738 C5.2403,10.6599 4.53351,10.472 3.98975,10.1072 C3.37933,9.69777 2.99996,9.07751 2.99996,8.28571 C2.99996,7.49879 3.36632,6.77575 3.85736,6.18073 C4.3559,5.57662 5.04315,5.028 5.8436,4.56647 Z M5.39992,7.45373 C5.21076,7.68294 5.00048,7.98134 4.99993873,8.29302 C4.99932906,8.52826071 5.43946594,8.65578383 5.81088704,8.72574262 L6.04273017,8.76440415 L6.04273017,8.76440415 L6.27894,8.79764 C6.65520176,8.85627824 7.08556128,8.89792858 7.57019868,8.9275114 L8.17782848,8.95753328 L8.17782848,8.95753328 L8.83763421,8.97785975 L8.83763421,8.97785975 L9.54968506,8.99038024 L9.54968506,8.99038024 L11.1307988,8.99956094 L11.1307988,8.99956094 L13.2840826,8.99865786 L13.2840826,8.99865786 L14.0746133,8.99430368 L14.0746133,8.99430368 L14.8128032,8.98497766 L14.8128032,8.98497766 L15.4987197,8.96879035 C15.6086867,8.96541573 15.7164785,8.96167649 15.8220965,8.95753328 L16.4297293,8.9275114 C16.8174421,8.90384515 17.1704182,8.87245567 17.4887477,8.83082376 L17.7870968,8.78867217 L17.7870968,8.78867217 L18.1797704,8.74002185 C18.5588889,8.68323889 19.0004668,8.57041 19.0000007,8.28571 C19.0000007,8.12587 18.9186,7.8398 18.6,7.45373 C18.2889,7.07675 17.8046,6.67229 17.1573,6.29909 C15.8642,5.55348 14.0369,5 12,5 C9.96304,5 8.13574,5.55348 6.84261,6.29909 C6.19534,6.67229 5.71102,7.07675 5.39992,7.45373 Z M4.33586,11.9077 C5.34356,11.2359 6.65636,11.2359 7.66406,11.9077 L8.44526,12.4285 C8.78116,12.6524 9.21876,12.6524 9.55466,12.4285 L10.3359,11.9077 C11.3436,11.2359 12.6564,11.2359 13.6641,11.9077 L14.4453,12.4285 C14.7812,12.6524 15.2188,12.6524 15.5547,12.4285 L16.3359,11.9077 C17.3436,11.2359 18.6564,11.2359 19.6641,11.9077 L20.5889,12.5242 C21.0485,12.8306 21.1727,13.4515 20.8663,13.911 C20.5599,14.3705 19.9391,14.4947 19.4795,14.1883 L18.5547,13.5718 C18.2188,13.3478 17.7812,13.3478 17.4453,13.5718 L16.6641,14.0926 C15.6564,14.7644 14.3436,14.7644 13.3359,14.0926 L12.5547,13.5718 C12.2188,13.3478 11.7812,13.3478 11.4453,13.5718 L10.6641,14.0926 C9.65636,14.7644 8.34356,14.7644 7.33586,14.0926 L6.55466,13.5718 C6.21876,13.3478 5.78116,13.3478 5.44526,13.5718 L4.94102793,13.9180636 C4.78921551,14.0188837 4.62544857,14.1213857 4.46629,14.2053 C3.97773,14.4629 3.37289,14.2756 3.11535,13.787 C2.8578,13.2985 3.04507,12.6936 3.53363,12.4361 C3.60578429,12.3980714 3.67161776,12.3590224 3.73758872,12.3168166 L4.33586,11.9077 L4.33586,11.9077 Z M3.99996,15 C3.44767,15 2.99996,15.4477 2.99996,16 L2.99996,17 C2.99996,19.2091 4.79082,21 6.99996,21 L17,21 C19.2091,21 21,19.2091 21,17 L21,16 C21,15.4477 20.5522,15 20,15 L3.99996,15 Z M6.99996,19 C5.89539,19 4.99996,18.1046 4.99996,17 L19,17 C19,18.1046 18.1045,19 17,19 L6.99996,19 Z"/></g></svg>

<svg xmlns="http://www.w3.org/2000/svg" width="24" height="24"><g fill="none" fill-rule="evenodd"><path d="M24 0v24H0V0zM12.594 23.258l-.012.002-.071.035-.02.004-.014-.004-.071-.036c-.01-.003-.019 0-.024.006l-.004.01-.017.428.005.02.01.013.104.074.015.004.012-.004.104-.074.012-.016.004-.017-.017-.427c-.002-.01-.009-.017-.016-.018m.264-.113-.014.002-.184.093-.01.01-.003.011.018.43.005.012.008.008.201.092c.012.004.023 0 .029-.008l.004-.014-.034-.614c-.003-.012-.01-.02-.02-.022m-.715.002a.023.023 0 0 0-.027.006l-.006.014-.034.614c0 .012.007.02.017.024l.015-.002.201-.093.01-.008.003-.011.018-.43-.003-.012-.01-.01z"/><path fill="#09244B" d="M5.844 4.566C7.446 3.643 9.619 3 12 3s4.554.643 6.156 1.566c.8.462 1.488 1.01 1.987 1.615.49.595.857 1.318.857 2.105 0 .792-.38 1.412-.99 1.821-.544.365-1.25.553-1.981.667-.58.09-1.259.145-2.019.177l-.786.026-.837.015-.885.006h-3.004l-.885-.006-.837-.015-.786-.026a18.59 18.59 0 0 1-2.019-.177c-.73-.114-1.437-.302-1.981-.667-.61-.41-.99-1.03-.99-1.821 0-.787.366-1.51.857-2.105.499-.604 1.186-1.153 1.987-1.615M5.4 7.454c-.19.229-.4.527-.4.839 0 .235.44.363.81.433l.233.038.236.034c.376.058.807.1 1.291.13l.608.03.66.02.712.012 1.58.01 2.154-.001.79-.005.739-.009.686-.016.323-.011.608-.03c.387-.024.74-.056 1.059-.097l.298-.042.393-.049c.379-.057.82-.17.82-.454 0-.16-.081-.446-.4-.832-.311-.377-.795-.782-1.443-1.155C15.864 5.553 14.037 5 12 5s-3.864.553-5.157 1.3c-.648.372-1.132.777-1.443 1.154m-1.064 4.454a3 3 0 0 1 3.328 0l.781.52a1 1 0 0 0 1.11 0l.78-.52a3 3 0 0 1 3.33 0l.78.52a1 1 0 0 0 1.11 0l.78-.52a3 3 0 0 1 3.33 0l.924.616a1 1 0 1 1-1.11 1.664l-.924-.616a1 1 0 0 0-1.11 0l-.78.52a3 3 0 0 1-3.33 0l-.78-.52a1 1 0 0 0-1.11 0l-.78.52a3 3 0 0 1-3.33 0l-.78-.52a1 1 0 0 0-1.11 0l-.504.346c-.152.1-.316.203-.475.287a1 1 0 1 1-.932-1.769c.072-.038.138-.077.204-.12zM4 15a1 1 0 0 0-1 1v1a4 4 0 0 0 4 4h10a4 4 0 0 0 4-4v-1a1 1 0 0 0-1-1zm3 4a2 2 0 0 1-2-2h14a2 2 0 0 1-2 2z"/></g></svg>
